usr/share/icons/biglinux-icons-material/scalable/apps/gradio.svg

<?xml version="1.0" encoding="UTF-8" standalone="no"?>
<!-- Created with Inkscape (http://www.inkscape.org/) -->

<svg
   width="24"
   height="24"
   viewBox="0 0 6.3499999 6.3500002"
   version="1.1"
   id="svg5"
   xml:space="preserve"
   sodipodi:docname="org.gnome.Shortwave.svg"
   inkscape:version="1.3 (0e150ed6c4, 2023-07-21)"
   xmlns:inkscape="http://www.inkscape.org/namespaces/inkscape"
   xmlns:sodipodi="http://sodipodi.sourceforge.net/DTD/sodipodi-0.dtd"
   xmlns:xlink="http://www.w3.org/1999/xlink"
   xmlns="http://www.w3.org/2000/svg"
   xmlns:svg="http://www.w3.org/2000/svg"><sodipodi:namedview
     id="namedview7"
     pagecolor="#ffffff"
     bordercolor="#000000"
     borderopacity="0.25"
     inkscape:showpageshadow="2"
     inkscape:pageopacity="0.0"
     inkscape:pagecheckerboard="0"
     inkscape:deskcolor="#d1d1d1"
     inkscape:document-units="mm"
     showgrid="false"
     inkscape:zoom="12.814138"
     inkscape:cx="-0.35117461"
     inkscape:cy="9.0134816"
     inkscape:window-width="2560"
     inkscape:window-height="998"
     inkscape:window-x="0"
     inkscape:window-y="0"
     inkscape:window-maximized="1"
     inkscape:current-layer="svg5" /><defs
     id="defs2"><linearGradient
       inkscape:collect="always"
       id="linearGradient2"><stop
         style="stop-color:#f55872;stop-opacity:1"
         offset="0"
         id="stop1" /><stop
         style="stop-color:#ffd9d9;stop-opacity:1;"
         offset="1"
         id="stop2" /></linearGradient><linearGradient
       inkscape:collect="always"
       id="linearGradient2420"><stop
         style="stop-color:#f55872;stop-opacity:1"
         offset="0"
         id="stop2416" /><stop
         style="stop-color:#ffd5d5;stop-opacity:1"
         offset="1"
         id="stop2418" /></linearGradient><linearGradient
       inkscape:collect="always"
       xlink:href="#linearGradient2420"
       id="linearGradient3"
       gradientUnits="userSpaceOnUse"
       x1="181.18413"
       y1="378.93741"
       x2="170.48215"
       y2="-109.78677" /><linearGradient
       inkscape:collect="always"
       xlink:href="#linearGradient2"
       id="linearGradient4"
       gradientUnits="userSpaceOnUse"
       x1="181.18413"
       y1="378.93741"
       x2="170.48215"
       y2="-109.78677" /></defs><g
     id="g2"
     transform="matrix(0.0153286,0,0,0.0153286,0.26458537,0.26457559)"
     style="fill:url(#linearGradient4);fill-opacity:1;stroke-width:23.0144"
     inkscape:export-filename="g192.svg"
     inkscape:export-xdpi="24.269279"
     inkscape:export-ydpi="24.269279"><path
       d="m 148.375,1.961 c 2.07,0.023 4.047,-0.242 5.93,-0.789 24.785,-1.625 49.566,-1.559 74.343,0.195 22.469,1.75 44.219,6.625 65.25,14.625 34.965,14.395 58.887,39.36 71.774,74.899 7.367,21.398 11.719,43.402 13.051,66.007 1.839,28.391 1.179,56.715 -1.981,84.981 -2.363,19.867 -7.504,38.969 -15.422,57.312 -14.683,31.801 -38.472,53.739 -71.375,65.809 -26.664,9.008 -54.082,13.754 -82.254,14.23 C 176,380.879 144.633,378.508 113.574,372.117 56.414,359.387 21.156,324.535 7.793,267.574 2.125,241.93 -0.445,215.977 0.082,189.707 -0.551,161.773 2.418,134.238 8.98,107.098 22.988,53.84 56.797,20.836 110.414,8.086 122.906,5.035 135.559,2.992 148.375,1.961 Z"
       style="fill:url(#linearGradient3);fill-opacity:1;fill-rule:evenodd;stroke:none;stroke-width:23.0144"
       id="path2" /></g><path
     d="M 4.101075,1.5877397 V 1.7200443 H 4.2333796 A 0.52673924,0.52673924 0 0 1 4.7624857,2.2492628 V 2.3815675 H 4.89479 V 2.2492628 A 0.66005811,0.66005811 0 0 0 4.2332672,1.5877397 Z M 3.9687705,1.9846536 V 2.1169582 H 4.101075 c 0.1465045,0 0.2646091,0.1179923 0.2646091,0.2646093 V 2.5137592 H 4.4979886 V 2.381455 A 0.39601233,0.39601233 0 0 0 4.101075,1.9846536 Z M 3.7041612,2.3815675 c -0.078436,0 -0.1323047,0.061307 -0.1323047,0.1317415 v 0.2646089 h -1.852039 c -0.1323045,0 -0.2646091,0.1321924 -0.2646091,0.2644968 V 4.497653 c 0,0.1323042 0.1323046,0.2646089 0.2646091,0.2646089 h 2.9104764 c 0.1321918,0 0.2644961,-0.1323047 0.2644961,-0.2646089 V 3.0424147 c 0,-0.1323044 -0.1323043,-0.2644968 -0.2644961,-0.2644968 H 4.101075 V 2.513309 c 0,-0.073253 -0.059051,-0.131854 -0.1323045,-0.131854 z m 0.066152,0.1321917 h 0.132305 c 0.036626,0 0.066152,0.029528 0.066152,0.066152 V 2.7783688 H 3.7041612 V 2.5800247 c 0,-0.036739 0.029527,-0.066265 0.066152,-0.066266 z m -1.8267953,0.5286555 1.0076112,5.658e-4 c 0.1120196,0 0.2238139,0.093763 0.2238139,0.1884272 v 1.0774826 c 0,0.094439 -0.1117943,0.1894414 -0.2238139,0.1894414 H 1.9435179 c -0.014087,0 -0.028061,-0.00158 -0.04181,-0.00439 C 1.8052406,4.4746673 1.7198175,4.3919486 1.7198175,4.309343 V 3.2317472 c 0,-0.094439 0.1117941,-0.1886524 0.2237007,-0.1886524 v -5.659e-4 z m 1.4960337,5.658e-4 h 0.9669285 c 0.1120196,0 0.2234754,0.094101 0.2234754,0.1886525 v 1.0774823 c 0,0.094552 -0.1115689,0.1893289 -0.2233629,0.1893289 H 3.4396644 V 3.0429805 Z m 0.3307616,0.1320797 a 0.06626501,0.06626501 0 0 0 0,0.1325297 h 0.132305 a 0.06626501,0.06626501 0 0 0 0,-0.1325297 z m 0.3969142,0 a 0.06626501,0.06626501 0 0 0 0,0.1325297 h 0.1323043 a 0.06626501,0.06626501 0 0 0 0,-0.1325297 z M 2.4474932,3.3072517 a 0.46306646,0.46306646 0 1 0 0,0.9261328 0.46306646,0.46306646 0 0 0 0,-0.9261328 z m 1.3228203,0.1320797 a 0.06626501,0.06626501 0 0 0 0,0.1325292 h 0.1323049 a 0.06626501,0.06626501 0 0 0 0,-0.1325292 z m 0.3969142,0 a 0.06626501,0.06626501 0 0 0 0,0.1325292 H 4.299532 a 0.06626501,0.06626501 0 0 0 0,-0.1325292 z M 2.4474932,3.5716357 A 0.19851333,0.19851333 0 1 1 2.4472884,3.968662 0.19851332,0.19851332 0 0 1 2.4474342,3.5716357 Z m 1.7197345,0.1319664 a 0.06626517,0.06626517 0 0 0 0,0.1325303 H 4.299532 a 0.06626517,0.06626517 0 0 0 0,-0.1325303 z m -0.3969142,3.541e-4 c -0.036626,0 -0.066152,0.029301 -0.066152,0.065814 0,0.036514 0.029527,0.06649 0.066152,0.06649 h 0.1323049 a 0.06626501,0.06626501 0 0 0 0,-0.1323046 z m 0.5953706,0.3969139 a 0.13230464,0.13230464 0 1 0 0,0.2646091 0.13230464,0.13230464 0 0 0 0,-0.2646091 z"
     fill="#ffffff"
     id="path3502"
     style="stroke-width:3.24597" /></svg>

<svg xmlns="http://www.w3.org/2000/svg" xmlns:xlink="http://www.w3.org/1999/xlink" xml:space="preserve" width="24" height="24" viewBox="0 0 6.35 6.35"><defs><linearGradient id="b"><stop offset="0" style="stop-color:#f55872;stop-opacity:1"/><stop offset="1" style="stop-color:#ffd9d9;stop-opacity:1"/></linearGradient><linearGradient id="a"><stop offset="0" style="stop-color:#f55872;stop-opacity:1"/><stop offset="1" style="stop-color:#ffd5d5;stop-opacity:1"/></linearGradient><linearGradient xlink:href="#a" id="d" x1="181.184" x2="170.482" y1="378.937" y2="-109.787" gradientUnits="userSpaceOnUse"/><linearGradient xlink:href="#b" id="c" x1="181.184" x2="170.482" y1="378.937" y2="-109.787" gradientUnits="userSpaceOnUse"/></defs><g style="fill:url(#c);fill-opacity:1;stroke-width:23.0144"><path d="M148.375 1.961c2.07.023 4.047-.242 5.93-.789a545.854 545.854 0 0 1 74.343.195c22.469 1.75 44.219 6.625 65.25 14.625 34.965 14.395 58.887 39.36 71.774 74.899a246.354 246.354 0 0 1 13.051 66.007 482.597 482.597 0 0 1-1.981 84.981c-2.363 19.867-7.504 38.969-15.422 57.312-14.683 31.801-38.472 53.739-71.375 65.809-26.664 9.008-54.082 13.754-82.254 14.23-31.691 1.649-63.058-.722-94.117-7.113-57.16-12.73-92.418-47.582-105.781-104.543a328.944 328.944 0 0 1-7.711-77.867 319.253 319.253 0 0 1 8.898-82.609C22.988 53.84 56.797 20.836 110.414 8.086a241.29 241.29 0 0 1 37.961-6.125Z" style="fill:url(#d);fill-opacity:1;fill-rule:evenodd;stroke:none;stroke-width:23.0144" transform="matrix(.01533 0 0 .01533 .265 .265)"/></g><path fill="#fff" d="M4.101 1.588v.132h.132a.527.527 0 0 1 .53.53v.132h.132v-.133a.66.66 0 0 0-.662-.661Zm-.132.397v.132H4.1c.147 0 .265.118.265.265v.132h.132V2.38a.396.396 0 0 0-.397-.396Zm-.265.397a.13.13 0 0 0-.132.131v.265H1.72a.284.284 0 0 0-.265.264v1.456c0 .132.133.264.265.264h2.91a.285.285 0 0 0 .265-.264V3.042a.284.284 0 0 0-.265-.264h-.529v-.265a.132.132 0 0 0-.132-.132zm.066.132h.133c.036 0 .066.03.066.066v.198h-.265V2.58c0-.037.03-.066.066-.066zm-1.826.528 1.007.001c.112 0 .224.094.224.188V4.31c0 .094-.112.19-.224.19H1.944a.209.209 0 0 1-.042-.005c-.097-.02-.182-.102-.182-.185V3.232c0-.095.112-.189.224-.189zm1.496.001h.966c.112 0 .224.094.224.189v1.077c0 .095-.112.19-.223.19H3.44V3.042Zm.33.132a.066.066 0 0 0 0 .133h.133a.066.066 0 0 0 0-.133zm.397 0a.066.066 0 0 0 0 .133H4.3a.066.066 0 0 0 0-.133zm-1.72.132a.463.463 0 1 0 0 .926.463.463 0 0 0 0-.926zm1.323.132a.066.066 0 0 0 0 .133h.133a.066.066 0 0 0 0-.133zm.397 0a.066.066 0 0 0 0 .133H4.3a.066.066 0 0 0 0-.133zm-1.72.133a.199.199 0 1 1 0 .397.199.199 0 0 1 0-.397Zm1.72.132a.066.066 0 0 0 0 .132H4.3a.066.066 0 0 0 0-.132zm-.397 0a.066.066 0 0 0-.066.066c0 .036.03.066.066.066h.133a.066.066 0 0 0 0-.132zm.596.397a.132.132 0 1 0 0 .264.132.132 0 0 0 0-.264z" style="stroke-width:3.24597"/></svg>
